svg/food/bread_line.svg

<?xml version="1.0" encoding="UTF-8"?>
<svg width="24px" height="24px" viewBox="0 0 24 24" version="1.1" xmlns="http://www.w3.org/2000/svg" xmlns:xlink="http://www.w3.org/1999/xlink">
    <title>bread_line</title>
    <g id="页面-1" stroke="none" stroke-width="1" fill="none" fill-rule="evenodd">
        <g id="Food" transform="translate(-48.000000, 0.000000)">
            <g id="bread_line" transform="translate(48.000000, 0.000000)">
                 <path d="M24,0 L24,24 L0,24 L0,0 L24,0 Z M12.5934901,23.257841 L12.5819402,23.2595131 L12.5108777,23.2950439 L12.4918791,23.2987469 L12.4918791,23.2987469 L12.4767152,23.2950439 L12.4056548,23.2595131 C12.3958229,23.2563662 12.3870493,23.2590235 12.3821421,23.2649074 L12.3780323,23.275831 L12.360941,23.7031097 L12.3658947,23.7234994 L12.3769048,23.7357139 L12.4804777,23.8096931 L12.4953491,23.8136134 L12.4953491,23.8136134 L12.5071152,23.8096931 L12.6106902,23.7357139 L12.6232938,23.7196733 L12.6232938,23.7196733 L12.6266527,23.7031097 L12.609561,23.275831 C12.6075724,23.2657013 12.6010112,23.2592993 12.5934901,23.257841 L12.5934901,23.257841 Z M12.8583906,23.1452862 L12.8445485,23.1473072 L12.6598443,23.2396597 L12.6498822,23.2499052 L12.6498822,23.2499052 L12.6471943,23.2611114 L12.6650943,23.6906389 L12.6699349,23.7034178 L12.6699349,23.7034178 L12.678386,23.7104931 L12.8793402,23.8032389 C12.8914285,23.8068999 12.9022333,23.8029875 12.9078286,23.7952264 L12.9118235,23.7811639 L12.8776777,23.1665331 C12.8752882,23.1545897 12.8674102,23.1470016 12.8583906,23.1452862 L12.8583906,23.1452862 Z M12.1430473,23.1473072 C12.1332178,23.1423925 12.1221763,23.1452606 12.1156365,23.1525954 L12.1099173,23.1665331 L12.0757714,23.7811639 C12.0751323,23.7926639 12.0828099,23.8018602 12.0926481,23.8045676 L12.108256,23.8032389 L12.3092106,23.7104931 L12.3186497,23.7024347 L12.3186497,23.7024347 L12.3225043,23.6906389 L12.340401,23.2611114 L12.337245,23.2485176 L12.337245,23.2485176 L12.3277531,23.2396597 L12.1430473,23.1473072 Z" id="MingCute" fill-rule="nonzero"></path>
                <path d="M19.8388,4.28249 C20.6296,5.07323 21.0191,5.99325 20.9999,7.00196 C20.9815,7.96337 20.5936,8.89623 20.061,9.76635 C19.350136,10.9276811 18.2660466,12.1538711 17.0534745,13.4112369 L16.3808005,14.0999622 L16.3808005,14.0999622 L15.6914685,14.7936565 L15.6914685,14.7936565 L14.4214903,16.0622243 L14.4214903,16.0622243 L13.6811374,16.7917208 C12.329372,18.1092724 11.0106333,19.29936 9.76635,20.061 C8.89623,20.5936 7.96337,20.9815 7.00196,20.9999 C5.99325,21.0191 5.07323,20.6296 4.28249,19.8388 C3.09549,18.6518 2.58607,16.4945 2.88504,14.1937 C3.17819417,11.9377833 4.25625208,9.39137587 6.45019769,7.07308014 L6.77322,6.74153 C9.17029,4.35109 11.84,3.19089 14.1937,2.88504 C16.4945,2.58607 18.6518,3.09549 19.8388,4.28249 Z M18.4246,5.6967 C17.8439,5.11594 16.4175,4.6129 14.4515,4.86837 C14.0213,4.92427 13.5725,5.0162 13.1114,5.14912 C13.3707,5.44854 13.7108,5.66405 14.1447,5.80866 C14.6686,5.9833 14.9518,6.54961 14.7771,7.07356 C14.6025,7.59751 14.0362,7.88067 13.5122,7.70603 C12.5027,7.36953 11.7236,6.76365 11.2039,5.91724 C10.3676,6.35308 9.51905,6.93167 8.69038,7.67872 C8.84875,7.9161 9.06217,8.17829 9.32062,8.43674 C9.74410444,8.86021556 10.1776551,9.16278642 10.4955544,9.30040936 L10.6091,9.3442 C11.1331,9.51884 11.4162,10.0852 11.2416,10.6091 C11.067,11.133 10.5006,11.4162 9.97669,11.2416 C9.23899,10.9957 8.49066,10.4352 7.90641,9.85095 C7.69125,9.63579 7.47931,9.39837 7.28511,9.14742 C6.59822,9.98311 6.07541,10.8328 5.69088,11.6644 C5.962,12.2682 6.40719,12.6576 7.0736,12.8797 C7.59754,13.0544 7.88071,13.6207 7.70607,14.1446 C7.53143,14.6686 6.96511,14.9517 6.44116,14.7771 C5.86762,14.5859 5.36845,14.3078 4.94898,13.948 C4.91661,14.1183 4.88983,14.2863 4.86837,14.4515 C4.6129,16.4175 5.11594,17.8439 5.6967,18.4246 C6.1434,18.8713 6.55322,19.0081 6.96375,19.0002 C7.42157,18.9915 7.99734,18.7989 8.72223,18.3552 C9.67358118,17.7728471 10.7101055,16.8703675 11.8548495,15.774278 L12.4901264,15.1579705 L12.4901264,15.1579705 L13.4851069,14.1714863 L13.4851069,14.1714863 L14.8368418,12.816074 L14.8368418,12.816074 L15.4706394,12.1697529 C16.7036346,10.8992683 17.7199059,9.76006765 18.3552,8.72223 C18.7989,7.99734 18.9915,7.42157 19.0002,6.96375 C19.0081,6.55322 18.8713,6.1434 18.4246,5.6967 Z" id="形状" fill="#09244B"></path>
            </g>
        </g>
    </g>
</svg>

<svg xmlns="http://www.w3.org/2000/svg" width="24" height="24"><g fill="none" fill-rule="evenodd"><path d="M24 0v24H0V0h24ZM12.593 23.258l-.011.002-.071.035-.02.004-.014-.004-.071-.035c-.01-.004-.019-.001-.024.005l-.004.01-.017.428.005.02.01.013.104.074.015.004.012-.004.104-.074.012-.016.004-.017-.017-.427c-.002-.01-.009-.017-.017-.018Zm.265-.113-.013.002-.185.093-.01.01-.003.011.018.43.005.012.008.007.201.093c.012.004.023 0 .029-.008l.004-.014-.034-.614c-.003-.012-.01-.02-.02-.022Zm-.715.002a.023.023 0 0 0-.027.006l-.006.014-.034.614c0 .012.007.02.017.024l.015-.002.201-.093.01-.008.004-.011.017-.43-.003-.012-.01-.01-.184-.092Z"/><path fill="#09244B" d="M19.839 4.282c.79.791 1.18 1.711 1.16 2.72-.017.961-.405 1.894-.938 2.764-.71 1.162-1.795 2.388-3.008 3.645l-.672.689-.69.694-1.27 1.268-.74.73c-1.352 1.317-2.67 2.507-3.915 3.269-.87.533-1.803.92-2.764.939-1.009.02-1.929-.37-2.72-1.161-1.187-1.187-1.696-3.344-1.397-5.645.293-2.256 1.371-4.803 3.565-7.12l.323-.332c2.397-2.39 5.067-3.551 7.42-3.857 2.301-.299 4.459.21 5.646 1.397Zm-1.414 1.415c-.581-.581-2.008-1.084-3.974-.829-.43.056-.879.148-1.34.281.26.3.6.515 1.034.66a1 1 0 1 1-.633 1.897c-1.01-.336-1.788-.942-2.308-1.789A12.14 12.14 0 0 0 8.69 7.68c.159.237.372.5.63.758.424.423.858.726 1.176.863l.113.044a1 1 0 0 1-.632 1.898c-.738-.246-1.486-.807-2.07-1.391a7.46 7.46 0 0 1-.622-.704 11.711 11.711 0 0 0-1.594 2.517c.271.604.716.994 1.383 1.216a1 1 0 0 1-.633 1.897 4.41 4.41 0 0 1-1.492-.829c-.032.17-.06.338-.08.503-.256 1.967.247 3.393.828 3.974.446.446.856.583 1.267.575.458-.009 1.033-.201 1.758-.645.952-.582 1.988-1.485 3.133-2.58l.635-.617.995-.987 1.352-1.355.634-.646c1.233-1.27 2.249-2.41 2.884-3.448.444-.725.636-1.3.645-1.758.008-.41-.129-.82-.575-1.267Z"/></g></svg>
